lib/logo_updates/nrk-logo-nrk-3-with-bg.svg

<svg width="202" height="84" viewBox="0 0 202 84" fill="none" xmlns="http://www.w3.org/2000/svg">
<rect width="202" height="84" fill="#064E42"/>
<path d="M20 63V21.0038H33.7802V63H20ZM52.5283 27.6877L60.4532 63H45.3721L35.9092 21.0038H44.3676C46.3072 20.9786 48.1892 21.6624 49.6607 22.9264C51.1347 24.1373 52.1473 25.8184 52.5283 27.6877ZM62.5233 63V21.0038H76.3035V63H62.5233ZM86.7116 36.9743C85.2267 36.9888 83.7656 36.6003 82.4839 35.8504C81.2193 35.1194 80.1688 34.0689 79.438 32.8041C78.6872 31.5222 78.2986 30.0607 78.3134 28.5751C78.2964 27.0986 78.6853 25.6458 79.438 24.3755C80.1766 23.1245 81.2259 22.0853 82.4839 21.3588C83.766 20.6098 85.2269 20.2213 86.7116 20.2348C88.1877 20.2189 89.6399 20.6078 90.9108 21.3588C92.1562 22.0917 93.1943 23.13 93.9271 24.3755C94.6789 25.6462 95.0677 27.0987 95.0517 28.5751C95.0655 30.0605 94.6769 31.5218 93.9271 32.8041C93.202 34.0633 92.1627 35.113 90.9108 35.8504C89.6398 36.6029 88.1866 36.9918 86.7097 36.9743H86.7116ZM97.1807 63V21.0038H110.962V63H97.1807ZM128.408 43.9538C128.447 43.9946 128.742 44.4776 129.295 45.403C129.848 46.3283 130.567 47.5114 131.454 48.952C132.341 50.392 133.277 51.9199 134.262 53.536C135.247 55.1521 136.174 56.6803 137.043 58.1202C137.908 59.5602 138.894 61.1867 140 63H124.859C123.912 61.4621 123.055 60.0721 122.286 58.83C121.517 57.5878 120.7 56.2471 119.833 54.8077C118.965 53.3698 118.107 51.9699 117.259 50.6081C116.41 49.2464 115.681 48.0536 115.071 47.0297C114.459 46.0051 114.035 45.3149 113.799 44.9594C113.214 44.0771 112.868 43.058 112.794 42.0019C112.853 40.9883 113.179 40.0084 113.74 39.1619C113.976 38.7676 114.41 38.0675 115.041 37.062C115.672 36.0564 116.411 34.8637 117.259 33.4835C118.106 32.1034 118.965 30.6936 119.833 29.2543C120.702 27.815 121.519 26.4643 122.286 25.2025C123.056 23.9419 123.914 22.5421 124.859 21.0029H140L128.289 40.1082C127.926 40.6755 127.722 41.3292 127.697 42.0019C127.736 42.7081 127.983 43.3871 128.406 43.9538H128.408Z" fill="white"/>
<path d="M180.896 47.2639C180.486 46.0832 179.842 44.9971 179.004 44.0703C178.132 43.1328 177.074 42.3875 175.898 41.8821C174.551 41.3028 173.126 40.9242 171.669 40.7584V40.581C173.438 40.0186 175.084 39.1255 176.52 37.9492C177.8 36.8989 178.856 35.6016 179.624 34.1346C180.351 32.7273 180.727 31.1648 180.719 29.5807C180.746 28.2362 180.441 26.9057 179.832 25.707C179.209 24.5472 178.317 23.5535 177.231 22.8091C175.967 21.9493 174.552 21.3372 173.06 21.0053C171.227 20.5895 169.351 20.391 167.472 20.4139C166.235 20.4177 165 20.5067 163.775 20.68C162.508 20.855 161.254 21.1118 160.021 21.4488C158.833 21.7703 157.683 22.2164 156.59 22.7795L157.417 27.4517C158.285 27.0968 159.123 26.7913 159.932 26.535C160.741 26.2787 161.519 26.0717 162.267 25.914C163.016 25.7576 163.746 25.6393 164.456 25.5591C165.144 25.4815 165.834 25.442 166.526 25.4408C167.778 25.4202 169.028 25.5392 170.253 25.7957C171.141 25.9742 171.984 26.3259 172.736 26.8307C173.349 27.2626 173.831 27.8563 174.126 28.5458C174.439 29.3253 174.59 30.1603 174.57 31.0001C174.587 32.1537 174.312 33.2928 173.772 34.312C173.222 35.317 172.454 36.186 171.525 36.8551C170.477 37.6045 169.306 38.1649 168.065 38.511C166.622 38.9197 165.128 39.1189 163.629 39.1025H162.505L161.796 43.7155H163.688C165.434 43.6919 167.177 43.8405 168.893 44.159C170.177 44.3887 171.409 44.8495 172.529 45.5192C173.445 46.0772 174.192 46.8747 174.689 47.8258C175.182 48.848 175.425 49.9732 175.397 51.1081C175.429 52.2562 175.207 53.3971 174.747 54.4496C174.308 55.3837 173.623 56.1809 172.766 56.7561C171.741 57.4241 170.597 57.8862 169.396 58.1163C167.809 58.4337 166.193 58.5824 164.575 58.5599C163.984 58.5599 163.402 58.5402 162.83 58.5007C162.257 58.4613 161.656 58.4022 161.026 58.3233C160.396 58.2445 159.736 58.136 159.046 57.998C158.356 57.86 157.597 57.6925 156.769 57.4953L156 62.5223C156.866 62.68 157.704 62.8279 158.514 62.9659C159.323 63.1039 160.121 63.2222 160.908 63.3208C161.696 63.418 162.466 63.487 163.215 63.5277C163.965 63.5685 164.694 63.5882 165.403 63.5868C167.288 63.6015 169.17 63.4331 171.022 63.0841C172.596 62.7904 174.119 62.2725 175.546 61.5465C176.792 60.9144 177.913 60.063 178.857 59.033C179.747 58.0443 180.43 56.8882 180.868 55.6324C181.338 54.2524 181.568 52.8023 181.549 51.3447C181.566 49.9571 181.345 48.5768 180.896 47.2639Z" fill="#BEF7ED"/>
</svg>

<svg xmlns="http://www.w3.org/2000/svg" viewBox="0 0 202 84"><path fill="#064E42" d="M0 0h202v84H0z"/><path fill="#fff" d="M20 63V21.004h13.78V63H20Zm32.528-35.312L60.453 63h-15.08l-9.464-41.996h8.459a7.965 7.965 0 0 1 5.293 1.922 8.31 8.31 0 0 1 2.867 4.762ZM62.523 63V21.004h13.78V63h-13.78Zm24.189-26.026a8.213 8.213 0 0 1-4.228-1.124 8.336 8.336 0 0 1-3.046-3.046 8.206 8.206 0 0 1-1.125-4.229 8.056 8.056 0 0 1 1.125-4.2 8.437 8.437 0 0 1 3.046-3.016 8.233 8.233 0 0 1 4.228-1.124 8.083 8.083 0 0 1 4.199 1.124 8.504 8.504 0 0 1 3.016 3.016 8.075 8.075 0 0 1 1.125 4.2 8.226 8.226 0 0 1-1.125 4.23 8.4 8.4 0 0 1-3.016 3.045 8.059 8.059 0 0 1-4.201 1.124h.002ZM97.18 63V21.004h13.781V63H97.181Zm31.227-19.046c.039.04.334.524.887 1.449.553.925 1.272 2.108 2.159 3.549a1143.28 1143.28 0 0 1 5.589 9.168A854.89 854.89 0 0 0 140 63h-15.141c-.947-1.538-1.804-2.928-2.573-4.17a388.795 388.795 0 0 1-2.453-4.022 355.984 355.984 0 0 0-2.574-4.2 210.645 210.645 0 0 1-2.188-3.578 62.13 62.13 0 0 0-1.272-2.07 6.127 6.127 0 0 1-1.005-2.958 5.745 5.745 0 0 1 .946-2.84c.236-.394.67-1.094 1.301-2.1.631-1.006 1.37-2.198 2.218-3.578.847-1.38 1.706-2.79 2.574-4.23.869-1.439 1.686-2.79 2.453-4.052.77-1.26 1.628-2.66 2.573-4.2H140l-11.711 19.106a3.773 3.773 0 0 0-.592 1.894c.039.706.286 1.385.709 1.952h.002Z"/><path fill="#BEF7ED" d="M180.896 47.264a9.323 9.323 0 0 0-1.892-3.194 9.207 9.207 0 0 0-3.106-2.188 14.996 14.996 0 0 0-4.229-1.124v-.177a14.668 14.668 0 0 0 4.851-2.632 12.336 12.336 0 0 0 3.104-3.814 9.815 9.815 0 0 0 1.095-4.554 8.19 8.19 0 0 0-.887-3.874 8.242 8.242 0 0 0-2.601-2.898 12.079 12.079 0 0 0-4.171-1.804 23.944 23.944 0 0 0-5.588-.591 26.982 26.982 0 0 0-3.697.266 29.6 29.6 0 0 0-3.754.769 17.437 17.437 0 0 0-3.431 1.33l.827 4.673c.868-.355 1.706-.66 2.515-.917a24.442 24.442 0 0 1 2.335-.621 23.771 23.771 0 0 1 2.189-.355 18.745 18.745 0 0 1 2.07-.118c1.252-.02 2.502.098 3.727.355a6.89 6.89 0 0 1 2.483 1.035 4.046 4.046 0 0 1 1.39 1.715A6.19 6.19 0 0 1 174.57 31a6.859 6.859 0 0 1-.798 3.312 7.675 7.675 0 0 1-2.247 2.543 11.053 11.053 0 0 1-3.46 1.656 15.65 15.65 0 0 1-4.436.591h-1.124l-.709 4.614h1.892a26.552 26.552 0 0 1 5.205.443c1.284.23 2.516.69 3.636 1.36a5.901 5.901 0 0 1 2.16 2.307 7.15 7.15 0 0 1 .708 3.282 7.8 7.8 0 0 1-.65 3.342 5.696 5.696 0 0 1-1.981 2.306 9.417 9.417 0 0 1-3.37 1.36 22.955 22.955 0 0 1-4.821.444c-.591 0-1.173-.02-1.745-.06a32.456 32.456 0 0 1-1.804-.177c-.63-.078-1.29-.187-1.98-.325a64.458 64.458 0 0 1-2.277-.503L156 62.522c.866.158 1.704.306 2.514.444.809.138 1.607.256 2.394.355a33.88 33.88 0 0 0 2.307.207c.75.04 1.479.06 2.188.059a29.118 29.118 0 0 0 5.619-.503 16.753 16.753 0 0 0 4.524-1.538 11.625 11.625 0 0 0 3.311-2.513 10.008 10.008 0 0 0 2.011-3.4c.47-1.38.7-2.83.681-4.288a12.151 12.151 0 0 0-.653-4.081Z"/></svg>
